public/images/logo4.svg

<svg width="80" height="30" viewBox="0 0 80 30" fill="none" xmlns="http://www.w3.org/2000/svg">
<g clip-path="url(#clip0_326_2931)">
<path d="M14.6796 13.6411C15.0173 14.5552 15.3578 15.739 16.8 15.582C16.7391 15.794 16.6782 16.006 16.6173 16.2152C16.8443 16.2152 17.0935 16.2786 17.29 16.2042C17.8298 15.995 18.3447 15.7252 18.8706 15.4829C19.3052 15.2847 19.7731 14.88 20.1744 14.9351C21.2983 15.0892 21.7357 14.4973 22.1675 13.6384C22.7295 12.5179 23.344 11.4084 24.072 10.3898C24.7419 9.4565 25.6083 8.66638 26.3447 7.77714C26.4776 7.61746 26.4499 7.27058 26.4 7.02831C26.0623 5.34344 24.6949 4.74879 23.2969 4.21194C23.034 4.11008 22.7045 3.9917 22.4582 4.06052C20.7198 4.5368 18.926 4.90296 17.2928 5.62701C16.3599 6.04272 15.7038 7.06961 14.9232 7.82119C14.9897 7.879 15.0533 7.93682 15.1198 7.99463H12.9966C13.5973 10.0594 14.0319 11.8902 14.6769 13.6411H14.6796ZM18.8485 13.4732L17.5834 11.6452L20.1578 12.3004L19.6097 13.0492L18.8485 13.4705V13.4732ZM21.6859 7.07236C21.3315 8.325 20.9772 9.57764 20.6229 10.8303C20.5454 10.8248 20.4679 10.8193 20.3904 10.8138C20.3405 10.5935 20.2935 10.3733 20.227 10.0787C19.4741 10.0787 18.699 10.0154 17.9378 10.0952C16.8277 10.2108 17.0769 8.92792 16.0139 8.66913L21.6859 7.06961V7.07236Z" fill="white"/>
<path d="M28.335 17.2778C27.189 16.73 25.9489 16.7795 24.7807 16.5125C22.1703 15.9178 19.7482 16.2674 17.6471 17.6522C16.1468 18.6406 15.0672 18.8773 13.8492 17.3576C12.3433 19.9813 13.2098 22.9188 12.1855 25.2424C12.8056 26.0187 13.6305 26.5941 13.6997 27.2521C13.8105 28.2873 14.5025 28.3946 15.1143 28.4965C15.9503 28.6369 16.9136 28.7388 17.6748 28.4607C18.879 28.0147 19.9087 27.1062 21.1073 26.6409C22.3392 26.1619 23.0091 26.5528 23.6983 27.7284C24.1385 28.48 24.7586 28.6149 25.4395 28.1469C26.3641 27.5081 26.9676 26.663 27.3579 25.5535C27.8783 24.0723 28.5399 22.6022 29.3897 21.2835C30.5329 19.5105 30.2506 18.1973 28.3378 17.2833L28.335 17.2778ZM24.4181 21.1899C24.3682 21.512 24.18 21.8093 24.1025 22.1287C23.7094 23.7475 22.6298 24.3339 21.0215 24.5844C19.6236 24.8019 18.3004 25.4929 16.908 25.9857C16.6229 25.3635 16.3046 24.667 15.9143 23.8136C16.2797 23.9044 16.5011 23.9732 16.7281 24.0173C17.8464 24.2238 18.915 24.5183 19.9613 23.5988C20.6672 22.9794 21.6693 22.7068 22.4582 22.1617C22.8707 21.8782 23.1087 21.3468 23.4243 20.9284C22.9592 20.6971 22.5108 20.3144 22.0236 20.2594C20.2271 20.0501 18.771 20.9284 17.362 21.8892C17.0824 22.0819 16.789 22.2581 16.4458 22.3297C18.2977 19.4059 21.3731 18.9654 24.7807 18.1808C24.6368 19.4004 24.5482 20.2979 24.4153 21.1899H24.4181Z" fill="white"/>
<path d="M9.81319 6.25219C8.66994 4.84538 8.27686 4.87015 7.00627 6.06223C6.82634 6.23016 6.69346 6.46968 6.59658 6.69818C6.1952 7.64798 5.90454 8.65285 5.41457 9.55309C4.04987 12.0721 2.60488 14.5471 1.27893 16.8872C1.1599 17.1102 1.01042 17.3773 0.938448 17.4571C0.808344 17.6003 0.0581709 18.2142 0.0581709 18.2142C0.0581709 18.2142 0.0111121 18.2582 0.00280762 18.3574C0.0498664 18.4014 0.10523 18.4482 0.171666 18.495C1.04087 19.1007 1.76059 19.9183 2.6298 20.7195C3.18343 20.2349 3.97789 19.5439 4.84987 18.7868C4.96336 19.8082 4.83326 20.8103 4.91353 21.7932C5.03257 23.2743 4.60904 24.7967 4.40973 26.3027C4.37651 26.5532 4.1689 26.8836 4.26578 27.0322C4.88862 27.971 5.36198 29.0309 6.5689 29.4852C7.02011 29.6559 7.38551 30.3524 7.87547 29.7743C8.18274 29.4109 8.46232 28.6951 8.30454 28.3317C7.38827 26.2366 7.75367 24.0534 7.75921 21.9115C7.75921 20.7966 8.08862 19.6678 8.39035 18.5776C8.6118 17.7765 8.68931 17.1212 8.08585 16.4165C7.65955 15.9154 7.45194 15.2299 7.25817 14.8527C8.09969 14.3407 8.72253 14.0681 9.20696 13.6386C9.84364 13.077 10.389 12.408 10.9371 11.7555C11.5239 11.059 12.3378 10.3708 11.7703 9.3301C11.189 8.26467 10.58 7.18822 9.81596 6.25219H9.81319Z" fill="white"/>
<path d="M71.3494 2.00684C66.5716 2.00684 62.6989 5.20038 62.6989 9.13999C62.6989 10.8276 63.4103 12.3776 64.5979 13.5999C63.6456 14.7562 61.7799 16.4438 58.6519 17.0936C58.6519 17.0936 63.3273 18.2443 67.9612 15.7088C69.002 16.0749 70.1453 16.2759 71.3467 16.2759C76.1245 16.2759 79.9972 13.0824 79.9972 9.14274C79.9972 5.20313 76.1245 2.00959 71.3467 2.00959L71.3494 2.00684Z" fill="#FD6925"/>
<path d="M44.072 8.01139C44.1052 7.85171 43.8201 7.50758 43.6125 7.44426C43.0394 7.26807 42.4332 7.19649 41.6249 7.03956C40.7003 4.19291 39.3356 2.88796 36.2048 2.61816C36.7363 4.82611 38.1093 6.35956 39.7647 7.82694C36.1107 9.61091 32.5619 11.6096 28.3765 11.9235C29.5336 14.0241 30.1426 14.1837 32.1218 13.0274C35.6817 10.9516 39.319 9.06306 43.5017 8.51795C43.7232 8.49042 44.0304 8.21512 44.072 8.00864V8.01139Z" fill="white"/>
<path d="M40.7363 18.3599C38.7211 18.3296 37.4643 19.7006 35.9806 20.7605C37.5252 22.3738 38.6021 21.2836 39.7093 20.1659C39.7176 22.0737 38.7931 22.8226 36.7308 23.3401C36.6976 21.3469 34.7405 21.5562 33.6913 20.5678C33.1709 23.1584 34.7737 26.2584 36.7501 26.4318V24.0642C37.301 24.2954 37.8131 24.7249 38.1979 24.6341C39.3854 24.345 40.5398 23.8963 41.6692 23.42C41.9543 23.2988 42.0982 22.8501 42.3086 22.5528C41.4311 22.0792 42.0595 21.6553 42.328 21.179C43.1363 19.7474 42.3418 18.3846 40.7335 18.3626L40.7363 18.3599Z" fill="white"/>
<path d="M35.0755 18.495C35.4575 18.9217 35.7592 19.1392 36.3931 18.7042C37.8796 17.6828 39.4796 16.8266 40.9966 15.8466C41.4949 15.5272 42.7267 15.7667 42.3475 14.7426C41.9793 13.757 40.8748 14.0103 40.0028 14.0929C39.8146 14.1121 39.6319 14.2443 39.452 14.3379C37.6111 15.3207 35.7731 16.3091 33.9738 17.2754C34.3253 17.6636 34.7046 18.0765 35.0783 18.4922L35.0755 18.495Z" fill="white"/>
<path d="M40.7446 13.0189C40.9965 12.8785 41.3231 12.3499 41.2567 12.2563C40.991 11.8901 40.5951 11.3891 40.227 11.3726C39.3218 11.334 38.4027 11.0973 37.5169 11.8874C36.764 12.5591 35.6512 12.8344 34.3612 13.4429C35.4436 13.9577 36.4235 14.8414 37.2429 14.7175C38.4719 14.5303 39.6041 13.6548 40.7446 13.0161V13.0189Z" fill="white"/>
<path d="M57.7384 16.4269C58.1121 13.6132 57.5252 13.6876 54.1232 13.8996C55.4325 16.3911 56.0304 16.8095 57.7384 16.4269Z" fill="white"/>
<path d="M62.4858 22.3463C62.1814 23.4641 61.9516 24.546 61.5668 25.5702C61.4589 25.8537 60.6782 26.2144 60.5647 26.118C59.344 25.0939 58.1592 24.0202 57.0547 22.8749C56.7973 22.6079 56.7696 22.0132 56.8166 21.5893C56.9052 20.8239 57.2153 20.0806 57.2679 19.318C57.2955 18.9298 57.0658 18.3957 56.7668 18.1479C56.3239 17.7818 55.7177 17.6111 55.5211 17.5202C55.1032 18.0791 54.8042 18.4838 54.4997 18.8913C53.1544 17.1018 53.2983 14.8223 51.7094 13.242C52.3959 13.0438 53.2263 12.8483 54.0236 12.5565C54.4582 12.3996 54.8346 12.0802 55.2388 11.8352C54.7599 11.6067 54.2561 11.1497 53.8076 11.1992C52.8748 11.2983 51.9696 11.6645 50.998 11.9371C50.926 10.2687 53.0796 10.7064 53.5945 9.20327C52.7696 9.0023 52.0222 8.81785 50.8263 8.52327C52.0028 7.94238 52.8831 7.50464 53.7634 7.06966C53.7717 6.94302 53.78 6.81638 53.7883 6.68974C52.9993 6.46949 52.2076 6.2465 51.5101 6.05103C52.3488 4.9443 53.3371 3.69992 54.2589 2.40874C55.1087 1.22218 54.9675 0.685333 53.7412 -0.00292969H50.9592C50.9675 0.242092 50.926 0.688086 50.9952 0.704604C52.1025 0.988169 51.7564 1.6902 51.5267 2.37571C51.2194 3.28146 51.0948 4.3056 50.5772 5.06544C50.0402 5.85556 49.9516 7.23484 48.4097 7.21006C48.7115 5.72892 49.0021 4.30835 49.2928 2.88777C49.1987 2.86575 49.1073 2.84648 49.0132 2.82445C48.5509 3.44664 48.0858 4.07159 47.607 4.71855C46.8928 4.39369 46.2035 4.07709 45.4893 3.75223C45.1322 5.92439 45.6969 7.20181 46.8817 8.2755C46.4249 8.58659 45.9876 8.88392 45.1848 9.43178C46.4969 9.71534 47.5128 9.93283 48.5924 10.1641C47.6457 10.6596 46.5938 11.2102 45.362 11.8517C45.9654 12.2702 46.5384 12.6666 47.1115 13.0631C47.0395 13.1484 46.9675 13.231 46.8955 13.3163C47.5322 13.0713 48.1661 12.8263 48.8333 12.5675C48.7364 13.4154 46.0457 14.9461 44.6865 15.0012C44.9661 16.4355 45.6194 16.9476 46.472 16.3887C47.1253 15.9593 47.7703 15.5133 48.4263 15.0865C50.1758 13.9495 50.4637 14.0073 51.3274 15.8546C51.5294 16.2869 51.6457 17.2119 51.5267 17.2615C50.8291 17.5533 50.1924 18.4976 49.1627 17.6386C49.8907 17.1844 50.5634 16.7659 51.3329 16.2841C48.6422 14.6516 47.2443 17.2642 45.2374 17.768C45.5807 18.1562 45.8796 18.4948 46.3004 18.9683C45.4146 19.976 44.6672 21.0937 43.6623 21.8866C42.8402 22.5363 42.9066 23.0814 43.4076 23.6788C44.0277 24.4139 44.5177 23.8 45.0298 23.3815C45.9903 22.5969 46.9897 21.8646 47.9751 21.1102C48.0692 21.1928 48.1661 21.2726 48.2602 21.3552C48.1578 21.9416 48.2685 22.7951 47.9198 23.0731C46.5246 24.1799 44.9883 25.1104 43.38 26.1868C43.9502 26.7072 44.5232 27.233 45.0962 27.7588C45.1211 27.6294 45.1461 27.5001 45.1682 27.3707C45.6803 27.2715 46.2616 26.9687 46.6935 27.1119C47.7897 27.4725 48.8222 28.0314 50.1924 28.6536C50.1924 26.8916 50.1786 25.3114 50.2063 23.7284C50.2118 23.4668 50.3253 23.1255 50.5108 22.9658C51.4326 22.1729 52.3959 21.4296 53.362 20.656C54.6353 23.0979 54.0014 24.4332 50.9398 26.0437C53.0298 27.3156 54.4249 25.8042 55.917 24.6699C57.4948 26.8283 59.3052 28.6233 61.7246 29.7493C62.4775 30.0989 63.081 30.1595 63.5987 29.4299V28.1718C63.2277 26.2337 62.854 24.2955 62.4803 22.3463H62.4858ZM46.7461 26.6962L48.5204 25.2095L48.7059 26.5778L46.7461 26.6934V26.6962ZM50.3474 21.4213C49.5779 19.3262 51.3551 19.3097 52.4291 18.6297C52.6312 18.9959 52.8222 19.34 53.0409 19.7392C52.1357 20.3063 51.2803 20.8377 50.3474 21.4213Z" fill="white"/>
<path d="M71.9141 15.3095H70.746V9.18943H65.3065V8.02764H70.746V3.14648H71.9141V8.02764H77.8574V9.18943H71.9141V15.3095Z" fill="white"/>
</g>
<defs>
<clipPath id="clip0_326_2931">
<rect width="80" height="30" fill="white"/>
</clipPath>
</defs>
</svg>

<svg xmlns="http://www.w3.org/2000/svg" width="80" height="30" fill="none"><g clip-path="url(#a)"><path fill="#fff" d="M14.68 13.641c.337.914.678 2.098 2.12 1.941q-.09.319-.183.633c.227 0 .476.064.673-.01.54-.21 1.055-.48 1.58-.722.435-.198.903-.603 1.304-.548 1.124.154 1.562-.438 1.994-1.297.562-1.12 1.176-2.23 1.904-3.248.67-.934 1.536-1.724 2.273-2.613.133-.16.105-.506.055-.749-.338-1.685-1.705-2.28-3.103-2.816-.263-.102-.593-.22-.839-.151-1.738.476-3.532.842-5.165 1.566-.933.416-1.59 1.443-2.37 2.194l.197.174h-2.123c.6 2.064 1.035 3.895 1.68 5.646zm4.169-.168-1.266-1.828 2.575.655-.548.75-.761.42zm2.837-6.4-1.063 3.757-.233-.016c-.05-.22-.096-.44-.163-.735-.753 0-1.528-.064-2.29.016-1.11.116-.86-1.167-1.923-1.426l5.672-1.6zM28.335 17.278c-1.146-.548-2.386-.498-3.554-.765-2.61-.595-5.033-.246-7.134 1.14-1.5.988-2.58 1.224-3.798-.295-1.506 2.623-.64 5.56-1.664 7.884.62.777 1.445 1.352 1.515 2.01.11 1.035.803 1.143 1.414 1.245.836.14 1.8.242 2.56-.036 1.205-.446 2.235-1.355 3.433-1.82 1.232-.48 1.902-.088 2.591 1.087.44.752 1.06.887 1.741.419.925-.639 1.529-1.484 1.919-2.593.52-1.482 1.182-2.952 2.032-4.27 1.143-1.773.86-3.087-1.052-4zm-3.917 3.912c-.05.322-.238.62-.316.939-.393 1.618-1.472 2.205-3.08 2.455-1.398.218-2.722.909-4.114 1.402l-.994-2.172c.366.09.587.16.814.203 1.118.207 2.187.501 3.233-.418.706-.62 1.708-.892 2.497-1.437.413-.284.65-.815.966-1.234-.465-.23-.913-.614-1.4-.669-1.797-.209-3.253.67-4.662 1.63-.28.193-.573.37-.916.44 1.852-2.923 4.927-3.364 8.335-4.148-.144 1.22-.233 2.117-.366 3.009zM9.813 6.252C8.67 4.845 8.277 4.87 7.006 6.062c-.18.168-.313.408-.41.636-.4.95-.691 1.955-1.181 2.855-1.365 2.52-2.81 4.994-4.136 7.334-.12.223-.269.49-.34.57-.13.143-.88.757-.88.757s-.048.044-.056.143q.07.067.169.138c.869.606 1.589 1.423 2.458 2.224a815 815 0 0 1 2.22-1.932c.113 1.021-.017 2.023.064 3.006.119 1.481-.305 3.004-.504 4.51-.033.25-.241.58-.144.73.623.938 1.096 1.998 2.303 2.452.451.17.817.867 1.306.29.308-.364.587-1.08.43-1.443-.917-2.095-.551-4.279-.546-6.42 0-1.115.33-2.244.631-3.334.222-.802.3-1.457-.304-2.161-.426-.502-.634-1.187-.828-1.564.842-.512 1.465-.785 1.949-1.214.637-.562 1.182-1.231 1.73-1.883.587-.697 1.4-1.385.833-2.426-.581-1.065-1.19-2.142-1.954-3.078z"/><path fill="#FD6925" d="M71.35 2.007c-4.778 0-8.651 3.193-8.651 7.133 0 1.688.711 3.238 1.899 4.46-.952 1.156-2.818 2.844-5.946 3.494 0 0 4.675 1.15 9.31-1.385 1.04.366 2.183.567 3.385.567 4.778 0 8.65-3.194 8.65-7.133s-3.873-7.133-8.65-7.133z"/><path fill="#fff" d="M44.072 8.011c.033-.16-.252-.503-.46-.567-.573-.176-1.179-.248-1.987-.404-.925-2.847-2.29-4.152-5.42-4.422.531 2.208 1.904 3.742 3.56 5.209-3.654 1.784-7.203 3.783-11.388 4.097 1.157 2.1 1.766 2.26 3.745 1.103 3.56-2.075 7.197-3.964 11.38-4.509.221-.028.528-.303.57-.51zM40.736 18.36c-2.015-.03-3.272 1.34-4.755 2.4 1.544 1.614 2.621.524 3.728-.594.009 1.908-.916 2.657-2.978 3.174-.033-1.993-1.99-1.784-3.04-2.772-.52 2.59 1.083 5.69 3.06 5.864v-2.368c.55.231 1.062.66 1.447.57 1.187-.289 2.342-.738 3.471-1.214.285-.121.43-.57.64-.867-.878-.474-.25-.898.019-1.374.808-1.432.014-2.794-1.595-2.816zM35.076 18.495c.382.427.683.644 1.317.21 1.487-1.022 3.087-1.878 4.604-2.858.498-.32 1.73-.08 1.35-1.104-.368-.986-1.472-.733-2.344-.65-.188.02-.371.151-.551.245-1.84.983-3.679 1.971-5.478 2.937.351.389.73.802 1.104 1.217zM40.745 13.019c.252-.14.578-.67.512-.763-.266-.366-.662-.867-1.03-.883-.905-.039-1.824-.276-2.71.514-.753.672-1.866.947-3.156 1.556 1.083.515 2.063 1.398 2.882 1.274 1.229-.187 2.361-1.062 3.502-1.7zM57.738 16.427c.374-2.814-.213-2.74-3.615-2.527 1.31 2.491 1.907 2.91 3.615 2.527"/><path fill="#fff" d="M62.486 22.346c-.305 1.118-.534 2.2-.92 3.224-.107.284-.888.644-1.001.548a45 45 0 0 1-3.51-3.243c-.258-.267-.285-.862-.238-1.286.088-.765.398-1.508.45-2.271.028-.388-.201-.922-.5-1.17-.443-.366-1.05-.537-1.246-.628L54.5 18.891c-1.346-1.79-1.202-4.069-2.79-5.649.686-.198 1.516-.394 2.314-.686.434-.156.81-.476 1.215-.72-.48-.23-.983-.686-1.431-.637-.933.1-1.838.466-2.81.738-.072-1.668 2.082-1.23 2.596-2.734-.824-.2-1.572-.385-2.768-.68 1.177-.58 2.057-1.018 2.937-1.453l.025-.38c-.789-.22-1.58-.444-2.278-.639.839-1.107 1.827-2.351 2.749-3.642.85-1.187.709-1.724-.518-2.412H50.96c.008.245-.033.691.036.708 1.108.283.761.985.532 1.67-.308.906-.432 1.93-.95 2.69-.537.79-.625 2.17-2.167 2.145l.883-4.322-.28-.064-1.406 1.895-2.118-.967c-.357 2.172.208 3.45 1.393 4.523l-1.697 1.157c1.312.283 2.328.5 3.407.732-.946.496-1.998 1.046-3.23 1.688l1.75 1.211-.217.253 1.938-.748c-.097.847-2.787 2.378-4.146 2.433.28 1.435.932 1.947 1.785 1.388.653-.43 1.298-.876 1.954-1.303 1.75-1.136 2.038-1.079 2.901.769.202.432.319 1.357.2 1.407-.698.291-1.335 1.236-2.364.377.728-.455 1.4-.873 2.17-1.355-2.69-1.632-4.089.98-6.096 1.484l1.063 1.2c-.885 1.008-1.633 2.126-2.638 2.919-.822.65-.755 1.194-.254 1.792.62.735 1.11.121 1.622-.297.96-.785 1.96-1.517 2.945-2.272q.143.123.285.245c-.102.587.009 1.44-.34 1.718-1.395 1.107-2.932 2.037-4.54 3.114q.856.781 1.716 1.572.038-.195.072-.388c.512-.1 1.094-.402 1.526-.26 1.096.361 2.128.92 3.498 1.543 0-1.762-.013-3.343.014-4.926.006-.261.12-.603.305-.762.922-.793 1.885-1.536 2.851-2.31 1.273 2.442.64 3.777-2.422 5.388 2.09 1.272 3.485-.24 4.977-1.374 1.578 2.158 3.388 3.953 5.808 5.08.752.349 1.356.41 1.874-.32v-1.258c-.371-1.938-.745-3.876-1.119-5.826zm-15.74 4.35 1.774-1.487.186 1.369-1.96.115zm3.601-5.275c-.77-2.095 1.008-2.111 2.082-2.791.202.366.393.71.612 1.11-.905.566-1.76 1.098-2.694 1.681M71.914 15.31h-1.168V9.19h-5.44V8.027h5.44V3.146h1.168v4.882h5.943v1.161h-5.943z"/></g><defs><clipPath id="a"><path fill="#fff" d="M0 0h80v30H0z"/></clipPath></defs></svg>
